X:1
T:Title
%%score ( 1 2 ) { 3 | 4 }
L:1/8
M:3/4
K:Bb
V:1 treble nm="Bright Piano"
V:2 treble 
V:3 bass nm="Bright Piano"
V:4 bass 
V:1
 z2 z2[Q:1/4=100] F2 | d2 cB AG | [EG]4 [DF]2 | [EG]2 [DF]2 [CE]2 | [CE]2 [B,D]2 [B,D]2 | %5
 B2 A2 [B,G]2 | [B,G]4 [B,F]2 | G2 F2 E-[CE] | [B,D]4 F2 | d2 cB AG | [EG]4 [DF]2 | %11
 [EG]2 [DF]2 [CE]2 | [CE]2 [B,D]2 [B,D]2 | [B,B]2 [CA]2 [DG]2 | [DF]4 F=E | D4 z2 | [A,D]4 F2 | %17
 [CF]2 [EG]2 [EF]2 | [DB]4 [DF]2 | d2 B2 [DF]2 | [EG]2 [DF]2 [DF]2 | [EG]4 [EA]2 | %22
 [Ec]3 [DB] [EA][EG] | [EG]6 | [DF]4 [CF]2 | [DF]2 [B,D]2 [B,E]2 | F2 z2 z2 | [DF]2 [Fd]2 cd | %28
 [Ee]2 [EG]2 [EG]2 | [Ee]2 [Fd]2 [Ec]2 | B2 A2 [EG]2 | [DF]2 [Fd]2 [Ec]2 |[M:2/4] [DB]4 |] %33
V:2
 x6 | D4 E2 | x6 | x6 | x6 | B,4 z2 | x6 | A,4 .A,2 | x6 | D4 E2 | x6 | x6 | x6 | x6 | z2 z2 _D2 | %15
 z2 A,2 [A,_D]2 | x6 | x6 | x6 | D4 z2 | x6 | x6 | x6 | x6 | x6 | x6 | B,2- [B,G]2 [B,F]2 | %27
 z2 z2 F2 | x6 | x6 | D4 z2 | x6 |[M:2/4] x4 |] %33
V:3
 z2 z2 F,2 | F,4 G,A, | B,4 B,2 | A,4 F,2 | F,2 F,2 F,2 | G,2 F,2 E,2 | E,4 D,2 | E,2 D,2 C,F, | %8
 F,4 F,2 | F,4 G,A, | B,4 B,2 | A,4 F,2 | F,2 F,2 F,2 | G,2 ^F,2 G,2 | A,4 G,2 | F,4 G,2 | %16
 F,4 F,2 | A,4 C2 | B,2 F,2 B,2 | B,2 F,2 B,2 | B,2 B,2 B,2 | B,4 A,2 | A,3 B, CB, | B,6 | %24
 z2 z2 A,2 | B,4 G,2 | F,2 E,2 D,2 | B,4 _A,2 | G,2 C2 C2 | A,2 B,2 A,2 | F,2 B,2 B,2 | B,4 A,2 | %32
[M:2/4] F,4 |] %33
V:4
 z6 | B,,4 B,,2 | B,,4 B,,2 | F,4 A,,2 | A,,2 B,,2 B,,2 | E,4 z2 | B,,4 B,,2 | F,,4 F,,2 | %8
 B,,4 z2 | B,,4 B,,2 | B,,4 B,,2 | F,4 A,,2 | A,,2 B,,2 B,,2 | G,,2 A,,2 B,,2 | A,,4 A,,2 | %15
 D,4 A,,2 | D,4 z2 | E,2 C,2 A,,2 | B,,4 B,,2 | B,,4 B,,2 | E,2 B,,2 B,,2 | E,4 F,2 | F,3 F, F,F, | %23
 B,,2 E,2 G,2 | B,4 F,2 | B,,2 F,2 E,2 | D,2 z2 B,,2 | B,,4 =B,,2 | C,2 C,2 E,2 | F,4 F,2 | %30
 B,,4 E,2 | F,4 F,2 |[M:2/4] B,,4 |] %33

